build/svg/cmd/lc_resetattributes.svg

<?xml version="1.0" encoding="UTF-8" standalone="no"?>
<svg
   xmlns:dc="http://purl.org/dc/elements/1.1/"
   xmlns:cc="http://creativecommons.org/ns#"
   xmlns:rdf="http://www.w3.org/1999/02/22-rdf-syntax-ns#"
   xmlns:svg="http://www.w3.org/2000/svg"
   xmlns="http://www.w3.org/2000/svg"
   xmlns:sodipodi="http://sodipodi.sourceforge.net/DTD/sodipodi-0.dtd"
   xmlns:inkscape="http://www.inkscape.org/namespaces/inkscape"
   viewBox="0 0 24 24"
   version="1.1"
   id="svg6"
   sodipodi:docname="lc_resetattributes.svg"
   inkscape:version="0.92.4 (5da689c313, 2019-01-14)"
   inkscape:export-filename="/home/jupiter007/Libreoffice yaru theme fullcolor/build/cmd/lc_resetattributes.png"
   inkscape:export-xdpi="95"
   inkscape:export-ydpi="95">
  <metadata
     id="metadata12">
    <rdf:RDF>
      <cc:Work
         rdf:about="">
        <dc:format>image/svg+xml</dc:format>
        <dc:type
           rdf:resource="http://purl.org/dc/dcmitype/StillImage" />
      </cc:Work>
    </rdf:RDF>
  </metadata>
  <defs
     id="defs10" />
  <sodipodi:namedview
     pagecolor="#ffffff"
     bordercolor="#666666"
     borderopacity="1"
     objecttolerance="10"
     gridtolerance="10"
     guidetolerance="10"
     inkscape:pageopacity="0"
     inkscape:pageshadow="2"
     inkscape:window-width="1920"
     inkscape:window-height="1011"
     id="namedview8"
     showgrid="true"
     inkscape:zoom="13.906433"
     inkscape:cx="0.87399186"
     inkscape:cy="2.4153018"
     inkscape:window-x="1920"
     inkscape:window-y="32"
     inkscape:window-maximized="1"
     inkscape:current-layer="svg6">
    <inkscape:grid
       type="xygrid"
       id="grid824" />
  </sodipodi:namedview>
  <path
     inkscape:connector-curvature="0"
     id="path829"
     d="m 8,4 v 2 h 5 L 8,18 H 4 v 2 H 16 V 18 H 11 L 16,6 h 4 V 4 Z"
     style="opacity:0.6;fill:#ffffff;fill-opacity:1;stroke:#000000;stroke-width:2;stroke-linecap:round;stroke-linejoin:round;stroke-miterlimit:4;stroke-dasharray:none;stroke-opacity:1" />
  <path
     style="opacity:1;fill:#ffffff;fill-opacity:1;stroke:none;stroke-width:2;stroke-linecap:round;stroke-linejoin:round;stroke-miterlimit:4;stroke-dasharray:none;stroke-opacity:1"
     d="m 8,4 v 2 h 5 L 8,18 H 4 v 2 H 16 V 18 H 11 L 16,6 h 4 V 4 Z"
     id="rect820"
     inkscape:connector-curvature="0" />
  <circle
     style="opacity:1;vector-effect:none;fill:#c7162b;fill-opacity:1;stroke:none;stroke-width:3.49999976;stroke-linecap:butt;stroke-linejoin:round;stroke-miterlimit:4;stroke-dasharray:none;stroke-dashoffset:0;stroke-opacity:1"
     id="path2644"
     cy="18.5"
     cx="18.5"
     r="3.5" />
  <path
     inkscape:connector-curvature="0"
     id="path1063"
     overflow="visible"
     font-weight="400"
     style="color:#000000;font-weight:400;line-height:normal;font-family:sans-serif;text-indent:0;text-align:start;text-decoration:none;text-decoration-line:none;text-decoration-style:solid;text-decoration-color:#000000;text-transform:none;white-space:normal;overflow:visible;isolation:auto;mix-blend-mode:normal;fill:#ffffff;fill-opacity:1;marker:none"
     d="M 16.37868,17.085786 17.792893,18.5 16.37868,19.914214 17.085786,20.62132 18.5,19.207107 19.914214,20.62132 20.62132,19.914214 19.207107,18.5 20.62132,17.085786 19.914214,16.37868 18.5,17.792893 17.085786,16.37868 Z" />
</svg>

<svg xmlns="http://www.w3.org/2000/svg" viewBox="0 0 24 24"><path d="M8 4v2h5L8 18H4v2h12v-2h-5l5-12h4V4z" opacity=".6" fill="#fff" stroke="#000" stroke-width="2" stroke-linecap="round" stroke-linejoin="round"/><path d="M8 4v2h5L8 18H4v2h12v-2h-5l5-12h4V4z" fill="#fff"/><circle cy="18.5" cx="18.5" r="3.5" fill="#c7162b"/><path overflow="visible" font-weight="400" style="line-height:normal;text-indent:0;text-align:start;text-decoration-line:none;text-decoration-style:solid;text-decoration-color:#000;text-transform:none;white-space:normal;isolation:auto;mix-blend-mode:normal;marker:none" d="M16.379 17.086l1.414 1.414-1.414 1.414.707.707 1.414-1.414 1.414 1.414.707-.707-1.414-1.414 1.414-1.414-.707-.707-1.414 1.414-1.414-1.414z" color="#000" font-family="sans-serif" fill="#fff"/></svg>
